X:1
T:Title
%%score 1 { 2 | 3 }
L:1/8
Q:1/4=94
M:4/4
K:G
V:1 treble nm="Grand Piano, Soprano"
V:2 treble nm="Choir Pad, One Day Nearer, C. A. Fyke"
V:3 bass 
V:1
 D[DG] [GB]2 [GB][GB] [Gc]2 | [GB][EA][EG][EG] [DF][CE] [EG]2 | [DF][CE] [B,D]2 [B,D][B,D] [DG]2 | %3
w: By~C.~A.~Fyke * * * * *|||
 [DF][DG] [FA]6 | D[DG] [GB]2 [GB][GB] [Gc]2 | [GB][EA][EG][EG] [DF][CE] [EG]2 | %6
w: |||
 [DF][CE] [B,D]2 [B,D][B,D] [CF]2 | [CE][CF] [B,G]6 | [GB][Ac] [Bd]4- [Bd][GB] | [EG][CE] [B,D]6 | %10
w: ||||
 [DG][DA] [GB]2 [GB][GB][GB][Gd] | [Fc][GB] [FA]6 | [GB][Ac] [Bd]4- [Bd][GB] | [EG][D=F] [CE]6 | %14
w: ||||
 [Ec][Ec] [FB]2 [DG][DB] [CA]2 | [B,G][A,F] [B,G]6- | [B,G]2 z2 z4 |] %17
w: |||
V:2
 B,B, D2 DD E2 | DCCC[K:bass] G,G, G,2 | G,G, G,2 G,G, G,2 | A,B, D6 | B,B,[K:treble] D2 DD E2 | %5
 DCCC[K:bass] G,G, G,2 | G,G, G,2 G,G, A,2 | A,A, G,6 | z4[K:treble] DD D2 | z4[K:bass] G,2 G,2 | %10
 B,C D2[K:treble] DDDD | DD D2 D2 D2 | z4 DD D2 | z4[K:bass] G,2 G,2 | G,G, G,2 B,G, F,2 | %15
 G,A, G,6- | G,2 z2 z4 |] %17
V:3
 G,G, G,2 G,G, G,2 | G,C,C,C, C,C, C,2 | C,C, G,,2 G,,G,, G,,2 | A,,G,, D,6 | G,G, G,2 G,G, G,2 | %5
 G,C,C,C, C,C, C,2 | C,C, D,2 D,D, D,2 | D,D, G,,6 | z4 G,G, G,2 | z8 | G,G, G,2 G,G,G,B, | %11
 A,G, D,2 D,2 D,2 | z4 G,G, G,2 | z4 C,2 C,2 | C,C, D,2 D,D, D,2 | D,2 z2 z4 | z8 |] %17

